X:2004
L:1/4
M:4/4
K:D
 e | f f f/e/f/g/ | a f f3/2 d/ | e d d B | A3 g/f/ | g b g3/2 e/ | f a a3/2 f/ | e a ^g/a/ b |1 
 a2 a :|2 e g B c | d2 d || e | f b b3/2 f/ | f b b3/2 f/ | f b a f | a2 a g/f/ | e a a3/2 f/ | 
 e a a3/2 f/ | e e f/e/f/^g/ | a2 a ||

